X: 1368
T: How the Money Goes
R:Reel
N:Collected by F. O'Neill
B:O'Neill's 1368
Z:Transcribed by Trish O'Neil
M:C|
L:1/8
K:G
G2Bd gdBd|cBAc BGEF|G2Bd gdBd|ecAF GFED|
G2Bd gdBd|cBAc BGEF|G2Bd gdBd|ecAFG2||
ef|gbef gedf|gbefg2ef|gbef gedc|BGAFG2ef|
gbef gedf|gbefg2ga|(3gab (3bag gfed|egfag2z2|]


